X:1
T:Lux Prima
T:Lux Prima
T:Public  domain
T:Public  domain
Z:Public  domain
%%score { ( 1 2 ) ( 3 4 ) }
L:1/8
M:2/2
K:C
V:1 treble nm="P1"
V:2 treble 
V:3 bass nm="P2"
V:4 bass 
V:1
"^Editor: John Henry Fowler""^( Revision: 12-2-2007 )" E3 E E2 G2 | F2 A2 c2 G2 | %2
 e3 e"^( 1872 )" d2 B2 | c3 c B2 G2 | A2 (B2"^John Stainer" c2)"^( 1840 - 1901 )" E2 | D8 | %6
 E3 E ^G2 B2 | e2 B2 ^G2 E2 | e3 e f2 d2 | B3 B c2 F2 | E4 D4 | C8 |] %12
V:2
 E3 E C2 E2 | C2 A2 A2 G2 | c3 c B2 G2 | A3 A G2 E2 | A2 G4 C2 | B,8 | B,3 B, E2 ^G2 | %7
 ^G2 G2 E2 E2 | G3 G F2 F2 | E3 E C2 C2 | C4 B,4 | C8 |] %12
V:3
 C3 C C2 C2 | C2 F2 F2 E2 | E3 E D2 B,2 | C3 C B,2 G,2 | (C2 D2) C2 G,2 | (B,4 A,4) | %6
"^1.  Come, my soul, thou must be waking;Now is breaking over the earth another day;Come to Him Who made this splendor;See thou render all thy feeble powers can pay.2.  Thou, too, hail the light returningReady burning be the incense of thy powers;For the night is safely ended,God hath tended with His care thy helpless hours.3.  Pray that He may prosper everEach endeavor when thine aim is good and true;But that He may ever thwart thee,And convert thee, when thou evil wouldst pursue." G,3 G, B,2 E2 | %7
"^Words:   Friedrich Rudolf Ludwig Freiherr von Canitz, 1700                 (Seele du musst munter werden) translat­ed from German to English by Henry J. Buckoll, 1838." B,2 B,2 B,2 B,2 | %8
 ^C3 C D2"^4.  Think that He thy ways beholdeth;He unfoldeth every fault that lurks within;He the hidden shame glossed overCan discover, and discern each deed of sin.5.  Mayest thou on life’s last morrow,Free from sorrow, pass away in slumber sweet:And, released from death’s dark sadness,Rise in gladness that far brighter Sun to greet.6.  Only God’s free gifts abuse not,Light refuse not, but His Spirit’s voice obey;Thou with Him shalt dwell, beholdingLight enfolding all things in unclouded day." A,2 | %9
 ^G,3 G, A,2 C2 | C4 (G,2 F,2) | E,8 |] %12
V:4
 C,3 C, C2 C2 | A,2 F,2 C2 C,2 | C3 C B,2 G,2 | A,3 A, G,2 E,2 | F,4 E,2 C,2 | G,4 F,4 | %6
 E,3 E, E,2 E,2 | E,2 E,2 E,2 ^G,2 | A,3 A, D,2 D,2 | E,3 E, E,2 ^G,2 | G,4 G,,4 | C,8 |] %12

